apps/scalable/griffith.svg

<?xml version="1.0" standalone="no"?><!-- Generator: Gravit.io --><svg xmlns="http://www.w3.org/2000/svg" xmlns:xlink="http://www.w3.org/1999/xlink" style="isolation:isolate" viewBox="0 0 256 256" width="256" height="256"><g id="Group" filter="url(#lEe1v4PsIizyUGshO7Vu9pwtE4z42n9x)"><linearGradient id="_lgradient_196" x1="0.49999999999999994" y1="-0.036" x2="0.4999999999999997" y2="1.036" gradientTransform="matrix(244.648,0,0,228.338,5.676,11.947)" gradientUnits="userSpaceOnUse"><stop offset="0%" stop-opacity="1" style="stop-color:rgb(0,0,0)"/><stop offset="100%" stop-opacity="1" style="stop-color:rgb(51,51,51)"/></linearGradient><path d=" M 165.685 11.947 C 239.74 11.947 250.324 22.504 250.324 96.491 L 250.324 155.742 C 250.324 229.728 239.74 240.285 165.685 240.285 L 90.315 240.285 C 16.26 240.285 5.676 229.728 5.676 155.742 L 5.676 96.491 C 5.676 22.504 16.26 11.947 90.315 11.947 L 165.685 11.947 L 165.685 11.947 Z " id="Path" fill="url(#_lgradient_196)"/></g><defs><filter id="lEe1v4PsIizyUGshO7Vu9pwtE4z42n9x" x="-200%" y="-200%" width="400%" height="400%" filterUnits="objectBoundingBox" color-interpolation-filters="sRGB"><feGaussianBlur xmlns="http://www.w3.org/2000/svg" in="SourceGraphic" stdDeviation="4.294"/><feOffset xmlns="http://www.w3.org/2000/svg" dx="0" dy="4" result="pf_100_offsetBlur"/><feFlood xmlns="http://www.w3.org/2000/svg" flood-color="#000000" flood-opacity="0.4"/><feComposite xmlns="http://www.w3.org/2000/svg" in2="pf_100_offsetBlur" operator="in" result="pf_100_dropShadow"/><feBlend xmlns="http://www.w3.org/2000/svg" in="SourceGraphic" in2="pf_100_dropShadow" mode="normal"/></filter></defs><g id="Group" style="opacity:0.6;"><g opacity="0.6"><linearGradient id="_lgradient_197" x1="1.0000050431186644" y1="0.5000027594428134" x2="1.0000050431186644" y2="0.01800009933994129" gradientTransform="matrix(198.29,0,0,181.196,28.855,35.521)" gradientUnits="userSpaceOnUse"><stop offset="0%" stop-opacity="0.972" style="stop-color:rgb(255,255,255)"/><stop offset="64.572%" stop-opacity="0.916" style="stop-color:rgb(255,255,255)"/><stop offset="100%" stop-opacity="0" style="stop-color:rgb(255,255,255)"/></linearGradient><path d=" M 224.059 35.521 C 225.174441 36.51417 226.206566 37.597132 227.145 38.759 L 227.145 45.777 L 210.051 45.777 L 210.051 35.521 L 224.059 35.521 L 224.059 35.521 Z  M 45.949 35.521 L 45.949 45.777 L 28.855 45.777 L 28.855 38.759 C 29.793434 37.597132 30.825559 36.51417 31.941 35.521 L 45.949 35.521 L 45.949 35.521 Z  M 227.145 52.615 L 227.145 62.871 L 210.051 62.871 L 210.051 52.615 L 227.145 52.615 L 227.145 52.615 Z  M 45.949 52.615 L 45.949 62.871 L 28.855 62.871 L 28.855 52.615 L 45.949 52.615 L 45.949 52.615 Z  M 227.145 69.709 L 227.145 79.965 L 210.051 79.965 L 210.051 69.709 L 227.145 69.709 L 227.145 69.709 Z  M 45.949 69.709 L 45.949 79.965 L 28.855 79.965 L 28.855 69.709 L 45.949 69.709 L 45.949 69.709 Z  M 227.145 86.803 L 227.145 97.059 L 210.051 97.059 L 210.051 86.803 L 227.145 86.803 L 227.145 86.803 Z  M 45.949 86.803 L 45.949 97.059 L 28.855 97.059 L 28.855 86.803 L 45.949 86.803 L 45.949 86.803 Z  M 227.145 103.897 L 227.145 114.153 L 210.051 114.153 L 210.051 103.897 L 227.145 103.897 L 227.145 103.897 Z  M 45.949 103.897 L 45.949 114.153 L 28.855 114.153 L 28.855 103.897 L 45.949 103.897 L 45.949 103.897 Z  M 227.145 120.991 L 227.145 131.247 L 210.051 131.247 L 210.051 120.991 L 227.145 120.991 L 227.145 120.991 Z  M 45.949 120.991 L 45.949 131.247 L 28.855 131.247 L 28.855 120.991 L 45.949 120.991 L 45.949 120.991 Z  M 227.145 138.085 L 227.145 148.341 L 210.051 148.341 L 210.051 138.085 L 227.145 138.085 L 227.145 138.085 Z  M 45.949 138.085 L 45.949 148.341 L 28.855 148.341 L 28.855 138.085 L 45.949 138.085 L 45.949 138.085 Z  M 227.145 155.179 L 227.145 165.435 L 210.051 165.435 L 210.051 155.179 L 227.145 155.179 L 227.145 155.179 Z  M 45.949 155.179 L 45.949 165.435 L 28.855 165.435 L 28.855 155.179 L 45.949 155.179 L 45.949 155.179 Z  M 227.145 172.273 L 227.145 182.529 L 210.051 182.529 L 210.051 172.273 L 227.145 172.273 L 227.145 172.273 Z  M 45.949 172.273 L 45.949 182.529 L 28.855 182.529 L 28.855 172.273 L 45.949 172.273 L 45.949 172.273 Z  M 227.145 189.367 L 227.145 199.623 L 210.051 199.623 L 210.051 189.367 L 227.145 189.367 L 227.145 189.367 Z  M 45.949 189.367 L 45.949 199.623 L 28.855 199.623 L 28.855 189.367 L 45.949 189.367 L 45.949 189.367 Z  M 227.145 206.461 L 227.145 213.479 C 226.206566 214.640868 225.174441 215.72383 224.059 216.717 L 210.051 216.717 L 210.051 206.461 L 227.145 206.461 L 227.145 206.461 Z  M 45.949 206.461 L 45.949 216.717 L 31.941 216.717 C 30.825559 215.72383 29.793434 214.640868 28.855 213.479 L 28.855 206.461 L 45.949 206.461 L 45.949 206.461 Z " id="Compound Path" fill="url(#_lgradient_197)"/></g></g><path d=" M 191.206 12.882 C 189.843 12.777 188.602 12.631 187.173 12.548 C 179.796 12.115 171.532 11.95 162.274 11.95 L 86.903 11.95 C 78.683 11.95 71.522 12.149 64.794 12.481 L 64.794 239.757 C 71.522 240.089 78.683 240.288 86.903 240.288 L 162.274 240.288 C 171.532 240.288 179.796 240.123 187.173 239.69 C 188.602 239.606 189.843 239.461 191.206 239.356 L 191.206 12.882 L 191.206 12.882 Z " id="Path" fill="rgb(82,126,178)"/><path d=" M 131.818 183.709 Q 119.409 183.709 109.784 178.857 Q 100.159 174.005 94.352 165.732 Q 88.546 157.46 85.682 147.437 Q 82.818 137.414 82.818 126.119 Q 82.818 115.619 85.841 105.676 Q 88.864 95.733 94.671 87.301 Q 100.477 78.869 110.102 73.699 Q 119.727 68.528 131.818 68.528 Q 146.614 68.528 155.761 74.972 Q 164.909 81.415 171.75 92.392 L 152.818 103.21 Q 143.591 89.21 131.818 89.21 Q 124.5 89.21 119.011 92.631 Q 113.523 96.051 110.659 101.699 Q 107.796 107.346 106.443 113.471 Q 105.091 119.596 105.091 126.119 Q 105.091 141.71 111.773 152.369 Q 118.455 163.028 131.818 163.028 Q 139.932 163.028 145.579 157.778 Q 151.227 152.528 151.227 145.051 L 151.227 143.778 L 132.295 143.778 L 132.295 123.414 L 173.182 123.414 L 173.182 139.801 Q 173.182 160.482 161.568 172.096 Q 149.954 183.709 131.818 183.709 L 131.818 183.709 Z " id="Path" fill="rgb(253,201,43)"/><g opacity="0.1"><path d=" M 250.324 153.733 L 250.324 96.493 C 250.324 87.244 250.158 78.987 249.725 71.618 C 249.527819 68.144323 249.239052 64.67645 248.859 61.218 C 248.495 57.964 248.051 54.92 247.514 52.071 C 246.976 49.223 246.348 46.57 245.611 44.1 C 244.875 41.631 244.031 39.347 243.07 37.231 C 242.153311 35.1929 241.065412 33.236221 239.818 31.382 C 238.629391 29.620965 237.274876 27.977799 235.773 26.475 C 234.268893 24.97575 232.624728 23.623919 230.863 22.438 C 229.005832 21.191402 227.046509 20.10419 225.006 19.188 C 222.888 18.229 220.601 17.388 218.129 16.653 C 215.657 15.918 213.002 15.289 210.15 14.753 C 207.299 14.217 204.251 13.774 200.994 13.411 C 197.532124 13.03256 194.060935 12.744795 190.584 12.548 C 183.208 12.115 174.943 11.95 165.686 11.95 L 90.314 11.95 C 81.057 11.95 72.792 12.115 65.416 12.548 C 61.728 12.764 58.263 13.048 55.006 13.411 C 51.749 13.774 48.701 14.217 45.85 14.753 C 42.998 15.289 40.343 15.918 37.871 16.653 C 35.399 17.388 33.112 18.229 30.994 19.188 C 28.953491 20.10419 26.994168 21.191402 25.137 22.438 C 23.375272 23.623919 21.731107 24.97575 20.227 26.475 C 18.725124 27.977799 17.370609 29.620965 16.182 31.382 C 14.934588 33.236221 13.846689 35.1929 12.93 37.231 C 11.969 39.347 11.125 41.631 10.389 44.1 C 9.652 46.57 9.024 49.223 8.486 52.071 C 7.949 54.92 7.505 57.964 7.141 61.218 C 6.760948 64.67645 6.472181 68.144323 6.275 71.618 C 5.842 78.987 5.676 87.244 5.676 96.493 L 5.676 155.745 C 5.676 158.192 5.809 160.017 5.834 162.327 C 19.575 222.478 143.515 69.561 250.324 153.733 Z " id="Path" fill="rgb(255,255,255)"/></g><g opacity="0.4"><linearGradient id="_lgradient_198" x1="0.5166666666666668" y1="0" x2="0.5166666666666666" y2="1.0000000000000002" gradientTransform="matrix(244.65,0,0,228.34,5.68,11.95)" gradientUnits="userSpaceOnUse"><stop offset="0%" stop-opacity="1" style="stop-color:rgb(255,255,255)"/><stop offset="12.5%" stop-opacity="0.09803922" style="stop-color:rgb(255,255,255)"/><stop offset="92.500001%" stop-opacity="0.09803922" style="stop-color:rgb(0,0,0)"/><stop offset="100%" stop-opacity="0.49803922" style="stop-color:rgb(0,0,0)"/></linearGradient><path d=" M 165.06803 11.951234 C 169.395994 11.941409 173.723944 11.990533 178.051908 12.088781 C 181.927398 12.167379 185.802873 12.31475 189.678362 12.540721 C 193.1309 12.737216 196.583423 13.022134 200.026115 13.395476 C 203.085193 13.729518 206.144271 14.181458 209.173842 14.741469 C 211.888645 15.242533 214.57394 15.881143 217.219897 16.6573 C 219.619947 17.354858 221.970814 18.219439 224.242988 19.241215 C 226.357793 20.184394 228.384061 21.304417 230.302129 22.591462 C 232.141505 23.829383 233.862851 25.244151 235.436659 26.80629 C 237.000621 28.378252 238.417046 30.087764 239.656409 31.924995 C 240.944972 33.840824 242.066305 35.864728 243.020409 37.967229 C 244.043389 40.246576 244.908985 42.584873 245.617197 44.972292 C 246.394255 47.615155 247.033606 50.297317 247.535265 53.008956 C 248.095924 56.034984 248.548399 59.080665 248.882828 62.13617 C 249.256611 65.574836 249.541856 69.013506 249.738578 72.462003 C 249.964823 76.323139 250.112361 80.194101 250.200884 84.055237 C 250.289421 88.378131 250.338591 92.701032 250.32876 97.014106 L 250.32876 155.225886 C 250.338591 159.54878 250.289421 163.861854 250.200884 168.184747 C 250.112361 172.05571 249.964823 175.916853 249.738578 179.777981 C 249.541856 183.226485 249.256611 186.674975 248.882828 190.103826 C 248.548399 193.15933 248.095924 196.214835 247.535265 199.240851 C 247.033606 201.942664 246.394255 204.624837 245.617197 207.267703 C 244.908985 209.655115 244.043389 212.003235 243.020409 214.272755 C 242.066305 216.38509 240.944972 218.399156 239.656409 220.314999 C 238.417046 222.152226 237.000621 223.871561 235.436659 225.433697 C 233.862851 226.995832 232.141505 228.410601 230.302129 229.648532 C 228.384061 230.935575 226.357793 232.055598 224.242988 232.998768 C 221.970814 234.020552 219.619947 234.885137 217.219897 235.592507 C 214.57394 236.368672 211.888645 237.007276 209.173842 237.498515 C 206.144271 238.068354 203.085193 238.510465 200.026115 238.844519 C 196.583423 239.21785 193.1309 239.502777 189.678362 239.699269 C 185.802873 239.925235 181.927398 240.072615 178.051908 240.161035 C 173.723944 240.249454 169.395994 240.298581 165.06803 240.288762 L 90.941963 240.288762 C 86.614006 240.298581 82.286049 240.249454 77.9581 240.161035 C 74.08261 240.072615 70.20712 239.925235 66.331638 239.699269 C 62.879108 239.502777 59.426578 239.21785 55.983886 238.844519 C 52.924808 238.510465 49.865733 238.068354 46.836162 237.498515 C 44.121356 237.007276 41.436057 236.368672 38.7901 235.592507 C 36.390053 234.885137 34.039187 234.020552 31.767009 232.998768 C 29.652213 232.055598 27.625943 230.935575 25.707871 229.648532 C 23.868489 228.410601 22.147143 226.995832 20.573343 225.433697 C 19.009377 223.871561 17.592955 222.152226 16.353586 220.314999 C 15.065036 218.399156 13.943701 216.38509 12.989584 214.272755 C 11.966612 212.003235 11.101021 209.655115 10.392811 207.267703 C 9.615746 204.624837 8.976389 201.942664 8.47474 199.240851 C 7.914072 196.214835 7.461604 193.15933 7.127172 190.103826 C 6.753394 186.674975 6.468142 183.226485 6.271417 179.777981 C 6.045183 175.916853 5.897639 172.05571 5.809112 168.184747 C 5.720586 163.861854 5.671405 159.54878 5.681241 155.225886 L 5.681241 97.014106 C 5.671405 92.701032 5.720586 88.378131 5.809112 84.055237 C 5.897639 80.194101 6.045183 76.323139 6.271417 72.462003 C 6.468142 69.013506 6.753394 65.574836 7.127172 62.13617 C 7.461604 59.080665 7.914072 56.034984 8.47474 53.008956 C 8.976389 50.297317 9.615746 47.615155 10.392811 44.972292 C 11.101021 42.584873 11.966612 40.246576 12.989584 37.967229 C 13.943701 35.864728 15.065036 33.840824 16.353586 31.924995 C 17.592955 30.087764 19.009377 28.378252 20.573343 26.80629 C 22.147143 25.244151 23.868489 23.829383 25.707871 22.591462 C 27.625943 21.304417 29.652213 20.184394 31.767009 19.241215 C 34.039187 18.219439 36.390053 17.354858 38.7901 16.6573 C 41.436057 15.881143 44.121356 15.242533 46.836162 14.741469 C 49.865733 14.181458 52.924808 13.729518 55.983886 13.395476 C 59.426578 13.022134 62.879108 12.737216 66.331638 12.540721 C 70.20712 12.31475 74.08261 12.167379 77.9581 12.088781 C 82.286049 11.990533 86.614006 11.941409 90.941963 11.951234 L 165.06803 11.951234 Z  M 165.077876 15.959741 C 169.376317 15.949916 173.674759 15.99904 177.973216 16.087463 C 181.799522 16.175886 185.625827 16.323257 189.452133 16.539402 C 192.835809 16.735898 196.219486 17.010992 199.583486 17.384332 C 202.554026 17.698726 205.514751 18.131016 208.445953 18.681203 C 211.023049 19.152792 213.580483 19.761928 216.098564 20.498786 C 218.321569 21.147221 220.495374 21.952852 222.600334 22.896029 C 224.508571 23.750785 226.338116 24.762737 228.069293 25.922059 C 229.692286 27.012609 231.207063 28.260355 232.59398 29.645648 C 233.980897 31.030941 235.230091 32.543956 236.331763 34.165043 C 237.492434 35.894202 238.505568 37.711787 239.361333 39.607968 C 240.305606 41.720292 241.112187 43.891565 241.761369 46.102139 C 242.508934 48.617282 243.108947 51.161898 243.590914 53.735987 C 244.131912 56.663768 244.564709 59.6112 244.889308 62.578282 C 245.263091 65.938355 245.538505 69.308252 245.735227 72.687976 C 245.951626 76.509812 246.10901 80.321821 246.187687 84.143656 C 246.276225 88.437084 246.325394 92.720685 246.325394 97.014106 C 246.325394 97.014106 246.325394 97.014106 246.325394 97.014106 L 246.325394 155.225886 C 246.325394 155.225886 246.325394 155.225886 246.325394 155.225886 C 246.325394 159.519306 246.276225 163.802907 246.187687 168.096328 C 246.10901 171.918164 245.951626 175.739999 245.735227 179.552015 C 245.538505 182.931739 245.263091 186.301629 244.889308 189.671533 C 244.564709 192.628784 244.131912 195.576216 243.590914 198.503994 C 243.108947 201.078094 242.508934 203.622706 241.761369 206.137845 C 241.112187 208.358253 240.305606 210.5197 239.361333 212.63202 C 238.505568 214.528209 237.492434 216.355617 236.331763 218.074952 C 235.230091 219.705853 233.980897 221.218876 232.59398 222.604172 C 231.207063 223.979634 229.692286 225.227385 228.069293 226.317935 C 226.338116 227.477251 224.508571 228.489201 222.600334 229.343951 C 220.495374 230.296956 218.321569 231.092775 216.098564 231.741198 C 213.580483 232.478056 211.023049 233.087202 208.445953 233.558787 C 205.514751 234.108972 202.554026 234.541264 199.583486 234.865483 C 196.219486 235.228995 192.835809 235.513922 189.452133 235.70058 C 185.625827 235.916726 181.799522 236.073926 177.973216 236.152526 C 173.674759 236.25078 169.376317 236.290072 165.077876 236.290072 C 165.077876 236.290072 165.077876 236.290072 165.06803 236.290072 L 90.941963 236.290072 C 90.932125 236.290072 90.932125 236.290072 90.932125 236.290072 C 86.633683 236.290072 82.335234 236.25078 78.036784 236.152526 C 74.210479 236.073926 70.384173 235.916726 66.557868 235.70058 C 63.174195 235.513922 59.790522 235.228995 56.426518 234.865483 C 53.455967 234.541264 50.495253 234.108972 47.564048 233.558787 C 44.986944 233.087202 42.429517 232.478056 39.911433 231.741198 C 37.688439 231.092775 35.514626 230.296956 33.409665 229.343951 C 31.501429 228.489201 29.671886 227.477251 27.940703 226.317935 C 26.31772 225.227385 24.802935 223.979634 23.416022 222.604172 C 22.029109 221.218876 20.779904 219.705853 19.678243 218.074952 C 18.517564 216.355617 17.504428 214.528209 16.648674 212.63202 C 15.704392 210.5197 14.897819 208.358253 14.248626 206.137845 C 13.50107 203.622706 12.901057 201.078094 12.419081 198.503994 C 11.878086 195.576216 11.445291 192.628784 11.120694 189.671533 C 10.746916 186.301629 10.471501 182.931739 10.274776 179.552015 C 10.058378 175.739999 9.900997 171.918164 9.822307 168.096328 C 9.733781 163.802907 9.6846 159.519306 9.6846 155.225886 C 9.6846 155.225886 9.6846 155.225886 9.6846 155.225886 L 9.6846 97.014106 C 9.6846 97.014106 9.6846 97.014106 9.6846 97.014106 C 9.6846 92.720685 9.733781 88.437084 9.822307 84.143656 C 9.900997 80.321821 10.058378 76.509812 10.274776 72.687976 C 10.471501 69.308252 10.746916 65.938355 11.120694 62.578282 C 11.445291 59.6112 11.878086 56.663768 12.419081 53.735987 C 12.901057 51.161898 13.50107 48.617282 14.248626 46.102139 C 14.897819 43.891565 15.704392 41.720292 16.648674 39.607968 C 17.504428 37.711787 18.517564 35.894202 19.678243 34.165043 C 20.779904 32.543956 22.029109 31.030941 23.416022 29.645648 C 24.802935 28.260355 26.31772 27.012609 27.940703 25.922059 C 29.671886 24.762737 31.501429 23.750785 33.409665 22.896029 C 35.514626 21.952852 37.688439 21.147221 39.911433 20.498786 C 42.429517 19.761928 44.986944 19.152792 47.564048 18.681203 C 50.495253 18.131016 53.455967 17.698726 56.426518 17.384332 C 59.790522 17.010992 63.174195 16.735898 66.557868 16.539402 C 70.384173 16.323257 74.210479 16.175886 78.036784 16.087463 C 82.335234 15.99904 86.633683 15.949916 90.932125 15.959741 C 90.932125 15.959741 90.932125 15.959741 90.941963 15.959741 L 165.06803 15.959741 C 165.077876 15.959741 165.077876 15.959741 165.077876 15.959741 Z " fill-rule="evenodd" id="highlight" fill="url(#_lgradient_198)"/></g></svg>

<svg xmlns="http://www.w3.org/2000/svg" style="isolation:isolate" width="256" height="256"><defs><filter id="a" width="270.648" height="254.338" x="-7.32" y="2.95" filterUnits="userSpaceOnUse"><feGaussianBlur xmlns="http://www.w3.org/2000/svg" in="SourceGraphic" stdDeviation="4.294"/><feOffset xmlns="http://www.w3.org/2000/svg" dy="4" result="pf_100_offsetBlur"/><feFlood xmlns="http://www.w3.org/2000/svg" flood-opacity=".4"/><feComposite xmlns="http://www.w3.org/2000/svg" in2="pf_100_offsetBlur" operator="in" result="pf_100_dropShadow"/><feBlend xmlns="http://www.w3.org/2000/svg" in="SourceGraphic" in2="pf_100_dropShadow"/></filter></defs><g filter="url(#a)"><linearGradient id="b" x1=".5" x2=".5" y1="-.036" y2="1.036" gradientTransform="matrix(244.648 0 0 228.338 5.676 11.947)" gradientUnits="userSpaceOnUse"><stop offset="0%"/><stop offset="100%" stop-color="#333"/></linearGradient><path fill="url(#b)" d="M165.685 11.947c74.055 0 84.639 10.557 84.639 84.544v59.251c0 73.986-10.584 84.543-84.639 84.543h-75.37c-74.055 0-84.639-10.557-84.639-84.543V96.491c0-73.987 10.584-84.544 84.639-84.544h75.37z"/></g><g opacity=".6"><linearGradient id="c" x1="1" x2="1" y1=".5" y2=".018" gradientTransform="matrix(198.291 0 0 181.197 28.855 35.521)" gradientUnits="userSpaceOnUse"><stop offset="0%" stop-opacity=".972" stop-color="#fff"/><stop offset="64.572%" stop-opacity=".916" stop-color="#fff"/><stop offset="100%" stop-opacity="0" stop-color="#fff"/></linearGradient><path fill="url(#c)" d="M224.059 35.521a27.321 27.321 0 0 1 3.086 3.238v7.018h-17.094V35.521h14.008zm-178.11 0v10.256H28.855v-7.018a27.321 27.321 0 0 1 3.086-3.238h14.008zm181.196 17.094v10.256h-17.094V52.615h17.094zm-181.196 0v10.256H28.855V52.615h17.094zm181.196 17.094v10.256h-17.094V69.709h17.094zm-181.196 0v10.256H28.855V69.709h17.094zm181.196 17.094v10.256h-17.094V86.803h17.094zm-181.196 0v10.256H28.855V86.803h17.094zm181.196 17.094v10.256h-17.094v-10.256h17.094zm-181.196 0v10.256H28.855v-10.256h17.094zm181.196 17.094v10.256h-17.094v-10.256h17.094zm-181.196 0v10.256H28.855v-10.256h17.094zm181.196 17.094v10.256h-17.094v-10.256h17.094zm-181.196 0v10.256H28.855v-10.256h17.094zm181.196 17.094v10.256h-17.094v-10.256h17.094zm-181.196 0v10.256H28.855v-10.256h17.094zm181.196 17.094v10.256h-17.094v-10.256h17.094zm-181.196 0v10.256H28.855v-10.256h17.094zm181.196 17.094v10.256h-17.094v-10.256h17.094zm-181.196 0v10.256H28.855v-10.256h17.094zm181.196 17.094v7.018a27.321 27.321 0 0 1-3.086 3.238h-14.008v-10.256h17.094zm-181.196 0v10.256H31.941a27.321 27.321 0 0 1-3.086-3.238v-7.018h17.094z"/></g><path fill="#527EB2" d="M191.206 12.882c-1.363-.105-2.604-.251-4.033-.334-7.377-.433-15.641-.598-24.899-.598H86.903c-8.22 0-15.381.199-22.109.531v227.276c6.728.332 13.889.531 22.109.531h75.371c9.258 0 17.522-.165 24.899-.598 1.429-.084 2.67-.229 4.033-.334V12.882z"/><path fill="#FDC92B" d="M131.818 183.709q-12.409 0-22.034-4.852-9.625-4.852-15.432-13.125-5.806-8.272-8.67-18.295-2.864-10.023-2.864-21.318 0-10.5 3.023-20.443 3.023-9.943 8.83-18.375 5.806-8.432 15.431-13.602 9.625-5.171 21.716-5.171 14.796 0 23.943 6.444 9.148 6.443 15.989 17.42l-18.932 10.818q-9.227-14-21-14-7.318 0-12.807 3.421-5.488 3.42-8.352 9.068-2.863 5.647-4.216 11.772-1.352 6.125-1.352 12.648 0 15.591 6.682 26.25t20.045 10.659q8.114 0 13.761-5.25 5.648-5.25 5.648-12.727v-1.273h-18.932v-20.364h40.887v16.387q0 20.681-11.614 32.295-11.614 11.613-29.75 11.613z"/><path fill="#FFF" d="M250.324 153.733v-57.24c0-9.249-.166-17.506-.599-24.875a197.869 197.869 0 0 0-.866-10.4c-.364-3.254-.808-6.298-1.345-9.147-.538-2.848-1.166-5.501-1.903-7.971-.736-2.469-1.58-4.753-2.541-6.869a39.523 39.523 0 0 0-3.252-5.849 33.28 33.28 0 0 0-4.045-4.907 33.279 33.279 0 0 0-4.91-4.037 39.65 39.65 0 0 0-5.857-3.25c-2.118-.959-4.405-1.8-6.877-2.535-2.472-.735-5.127-1.364-7.979-1.9-2.851-.536-5.899-.979-9.156-1.342a199.58 199.58 0 0 0-10.41-.863c-7.376-.433-15.641-.598-24.898-.598H90.314c-9.257 0-17.522.165-24.898.598-3.688.216-7.153.5-10.41.863-3.257.363-6.305.806-9.156 1.342-2.852.536-5.507 1.165-7.979 1.9-2.472.735-4.759 1.576-6.877 2.535a39.65 39.65 0 0 0-5.857 3.25 33.279 33.279 0 0 0-4.91 4.037 33.28 33.28 0 0 0-4.045 4.907 39.523 39.523 0 0 0-3.252 5.849c-.961 2.116-1.805 4.4-2.541 6.869-.737 2.47-1.365 5.123-1.903 7.971-.537 2.849-.981 5.893-1.345 9.147a197.869 197.869 0 0 0-.866 10.4c-.433 7.369-.599 15.626-.599 24.875v59.252c0 2.447.133 4.272.158 6.582 13.741 60.151 137.681-92.766 244.49-8.594z" opacity=".1"/><g opacity=".4"><linearGradient id="d" x1=".517" x2=".517" y2="1"><stop offset="0%" stop-color="#fff"/><stop offset="12.5%" stop-opacity=".098" stop-color="#fff"/><stop offset="92.5%" stop-opacity=".098"/><stop offset="100%" stop-opacity=".498"/></linearGradient><path fill="none" stroke="url(#d)" stroke-linecap="round" stroke-linejoin="round" stroke-width="4.077" d="M165.685 11.947c74.055 0 84.639 10.557 84.639 84.544v59.251c0 73.986-10.584 84.543-84.639 84.543h-75.37c-74.055 0-84.639-10.557-84.639-84.543V96.491c0-73.987 10.584-84.544 84.639-84.544h75.37z" vector-effect="non-scaling-stroke"/></g></svg>
